icons/TriangleUp.svg

<svg width="24" height="24" viewBox="0 0 24 24" fill="none" xmlns="http://www.w3.org/2000/svg">
<path fill-rule="evenodd" clip-rule="evenodd" d="M12.2132,6.777c-0.0976,-0.15864 -0.3282,-0.15864 -0.4258,0l-6.21044,10.092c-0.10251,0.1665 0.01733,0.381 0.21291,0.381h12.42083c0.1956,0 0.3155,-0.2145 0.213,-0.381zM10.5099,5.99085c0.6834,-1.11044 2.2975,-1.11044 2.9808,0l6.2104,10.09195c0.7176,1.166 -0.1213,2.6672 -1.4904,2.6672h-12.42083c-1.36906,0 -2.20792,-1.5012 -1.4904,-2.6672z" fill="#002B51"/>
</svg>

<svg width="24" height="24" viewBox="0 0 24 24" fill="none" xmlns="http://www.w3.org/2000/svg">
<path fill-rule="evenodd" clip-rule="evenodd" d="M12.2132 6.777C12.1156 6.61836 11.885 6.61836 11.7874 6.777L5.57696 16.869C5.47445 17.0355 5.59429 17.25 5.78987 17.25H18.2107C18.4063 17.25 18.5262 17.0355 18.4237 16.869L12.2132 6.777ZM10.5099 5.99085C11.1933 4.88041 12.8074 4.88041 13.4907 5.99085L19.7011 16.0828C20.4187 17.2488 19.5798 18.75 18.2107 18.75H5.78987C4.42081 18.75 3.58195 17.2488 4.29947 16.0828L10.5099 5.99085Z" fill="#002B51"/>
</svg>
